X: 403
T: Chuzhuan niaglaozi shui xinteng
L: 1/8
M: 2/4
K: G
d ed2 [I:setbarnb 1]| 
B A G E | 
G A B d | 
A4 | 
d e d d | 
B A G E | 
G A B E | 
D4 |]

@@@ Tune index: 9277
